talent/images/icons/gear.svg

<svg width="24" height="24" viewBox="0 0 24 24" fill="none" xmlns="http://www.w3.org/2000/svg">
<g id="gear">
<path id="Shape" fill-rule="evenodd" clip-rule="evenodd" d="M23.361 9.70391C23.6342 9.77577 23.8379 10.0043 23.878 10.284C23.9589 10.8483 24 11.4257 24 11.9998C24 12.574 23.959 13.1512 23.878 13.7155C23.838 13.9952 23.6343 14.2238 23.361 14.2956L22.166 14.6101C21.9201 15.5705 21.5403 16.4857 21.0331 17.3408L21.6566 18.41C21.7989 18.654 21.7814 18.9595 21.6121 19.1856C21.2711 19.6411 20.892 20.0783 20.4854 20.4852C20.0795 20.8911 19.6422 21.2703 19.1857 21.6121C18.9596 21.7814 18.654 21.799 18.4099 21.6566L17.3409 21.0329C16.4858 21.5402 15.5706 21.92 14.6103 22.1659L14.2958 23.3608C14.2239 23.6341 13.9955 23.8378 13.7158 23.8779C13.1517 23.9589 12.5744 24 12 24C11.4256 24 10.8483 23.9589 10.2843 23.8778C10.0046 23.8377 9.77616 23.634 9.70425 23.3608L9.38977 22.1658C8.42944 21.9199 7.51411 21.5401 6.65916 21.0328L5.59013 21.6565C5.346 21.7989 5.04052 21.7813 4.81439 21.612C4.35783 21.2701 3.92053 20.891 3.51473 20.4851C3.108 20.0782 2.72892 19.641 2.38795 19.1855C2.21869 18.9593 2.20116 18.6539 2.34342 18.4099L2.96695 17.3406C2.45977 16.4857 2.08003 15.5704 1.83408 14.61L0.639047 14.2955C0.365766 14.2236 0.162094 13.9951 0.122016 13.7154C0.0410625 13.1511 0 12.5739 0 11.9997C0 11.4255 0.0410625 10.8483 0.121969 10.284C0.162047 10.0043 0.365719 9.77572 0.639 9.70386L1.83403 9.38938C2.07994 8.42905 2.45967 7.51377 2.96691 6.65872L2.34337 5.5895C2.20111 5.34547 2.21864 5.04004 2.38791 4.81391C2.72888 4.35838 3.10795 3.92118 3.51464 3.51435C3.92053 3.10836 4.35783 2.72924 4.81434 2.38738C5.04047 2.21816 5.34605 2.20058 5.59008 2.34294L6.65911 2.96657C7.51416 2.45924 8.42939 2.0795 9.38972 1.8336L9.7042 0.638613C9.77611 0.365332 10.0045 0.16166 10.2842 0.121535C11.4123 -0.0405117 12.5876 -0.0405117 13.7157 0.121535C13.9954 0.161707 14.2238 0.365379 14.2957 0.638613L14.6102 1.8336C15.5706 2.07955 16.4859 2.45929 17.3408 2.96657L18.4099 2.34294C18.654 2.20049 18.9595 2.21807 19.1856 2.38738C19.6422 2.72929 20.0795 3.10841 20.4853 3.51435C20.892 3.92122 21.2711 4.35843 21.612 4.81396C21.7813 5.04008 21.7988 5.34552 21.6566 5.58955L21.033 6.65877C21.5402 7.51372 21.92 8.42905 22.1659 9.38943L23.361 9.70391ZM4.51875 12C4.51875 16.1252 7.87481 19.4812 12 19.4812C16.1252 19.4812 19.4813 16.1252 19.4813 12C19.4813 7.8748 16.1252 4.51874 12 4.51874C7.87481 4.51874 4.51875 7.8748 4.51875 12Z" fill="#AEBBCD"/>
<path id="Shape_2" fill-rule="evenodd" clip-rule="evenodd" d="M5.9248 12C5.9248 8.65027 8.65002 5.92505 11.9998 5.92505C15.3496 5.92505 18.0748 8.65027 18.0748 12C18.0748 15.3498 15.3496 18.075 11.9998 18.075C8.65002 18.075 5.9248 15.3498 5.9248 12ZM11.2467 14.9626C11.4332 14.9626 11.612 14.8885 11.7439 14.7566L15.5095 10.991C15.7841 10.7164 15.7841 10.2712 15.5095 9.99661C15.2349 9.72206 14.7897 9.72206 14.5152 9.99661L11.2467 13.2651L9.86104 11.8794C9.58645 11.6049 9.14123 11.6049 8.86668 11.8794C8.59209 12.154 8.59209 12.5993 8.86668 12.8738L10.7496 14.7566C10.8814 14.8885 11.0602 14.9626 11.2467 14.9626Z" fill="#AEBBCD"/>
</g>
</svg>

<svg width="24" height="24" fill="none" xmlns="http://www.w3.org/2000/svg"><g fill-rule="evenodd" clip-rule="evenodd" fill="#AEBBCD"><path d="M23.361 9.704c.273.072.477.3.517.58a12.133 12.133 0 010 3.431.703.703 0 01-.517.58l-1.195.315a10.39 10.39 0 01-1.133 2.73l.624 1.07a.703.703 0 01-.045.776 12.13 12.13 0 01-2.426 2.426.703.703 0 01-.776.045l-1.07-.624a10.39 10.39 0 01-2.73 1.133l-.314 1.195a.703.703 0 01-.58.517 12.113 12.113 0 01-3.432 0 .703.703 0 01-.58-.517l-.314-1.195a10.39 10.39 0 01-2.73-1.133l-1.07.623a.703.703 0 01-.776-.044 12.102 12.102 0 01-2.426-2.426.703.703 0 01-.045-.776l.624-1.07a10.394 10.394 0 01-1.133-2.73L.64 14.296a.703.703 0 01-.517-.58 12.123 12.123 0 010-3.432.703.703 0 01.517-.58l1.195-.315c.246-.96.626-1.875 1.133-2.73l-.624-1.07a.703.703 0 01.045-.775 12.106 12.106 0 012.426-2.427.703.703 0 01.776-.044l1.07.624a10.39 10.39 0 012.73-1.133L9.704.639a.703.703 0 01.58-.517 12.172 12.172 0 013.432 0c.28.04.508.243.58.517l.314 1.195c.96.246 1.876.625 2.73 1.133l1.07-.624a.703.703 0 01.776.044 12.096 12.096 0 012.426 2.427c.17.226.187.532.045.776l-.624 1.069c.507.855.887 1.77 1.133 2.73l1.195.315zM4.519 12c0 4.125 3.356 7.481 7.481 7.481s7.481-3.356 7.481-7.481S16.125 4.519 12 4.519 4.519 7.875 4.519 12z"/><path d="M5.925 12A6.082 6.082 0 0112 5.925 6.082 6.082 0 0118.075 12 6.082 6.082 0 0112 18.075 6.082 6.082 0 015.925 12zm5.322 2.963a.703.703 0 00.497-.206l3.765-3.766a.703.703 0 00-.994-.994l-3.268 3.268L9.86 11.88a.703.703 0 00-.994.995l1.883 1.883a.7.7 0 00.497.206z"/></g></svg>
